img/vk.svg

<svg xmlns="http://www.w3.org/2000/svg" width="100" height="100">
  <path fill-rule="evenodd" d="M65.352 100.009H34.648c-28.022 0-34.657-6.635-34.657-34.657V34.648C-.009 6.626 6.626-.009 34.648-.009h30.704c28.022 0 34.657 6.635 34.657 34.657v30.704c0 28.022-6.635 34.657-34.657 34.657zM83.28 68.246c-.635-2.047-3.035-5.012-6.14-8.541-1.694-1.976-4.236-4.164-5.012-5.223-1.059-1.412-.776-1.976 0-3.247-.071 0 8.823-12.564 9.741-16.799.494-1.553 0-2.682-2.188-2.682H72.41c-1.835 0-2.682.988-3.176 2.047 0 0-3.741 9.035-8.964 14.893-1.694 1.694-2.471 2.259-3.388 2.259-.494 0-1.13-.565-1.13-2.118v-14.47c0-1.835-.564-2.682-2.117-2.682H42.2c-1.129 0-1.835.847-1.835 1.694 0 1.765 2.612 2.188 2.894 7.129v10.729c0 2.329-.423 2.753-1.341 2.753-2.471 0-8.47-9.106-12.07-19.481-.706-2.047-1.412-2.824-3.247-2.824H19.26c-2.117 0-2.47.988-2.47 2.047 0 1.906 2.47 11.505 11.505 24.211 6 8.681 14.541 13.34 22.234 13.34 4.659 0 5.223-1.059 5.223-2.823v-6.565c0-2.117.424-2.47 1.906-2.47 1.059 0 2.965.565 7.27 4.729 4.941 4.941 5.788 7.2 8.541 7.2h7.27c2.118 0 3.106-1.059 2.541-3.106z"/>
</svg>

<svg 
 xmlns="http://www.w3.org/2000/svg"
 xmlns:xlink="http://www.w3.org/1999/xlink"
 width="100px" height="100px">
<path fill-rule="evenodd"  fill="rgb(0, 0, 0)"
 d="M65.352,100.009 L34.648,100.009 C6.626,100.009 -0.009,93.374 -0.009,65.352 L-0.009,34.648 C-0.009,6.626 6.626,-0.009 34.648,-0.009 L65.352,-0.009 C93.374,-0.009 100.009,6.626 100.009,34.648 L100.009,65.352 C100.009,93.374 93.374,100.009 65.352,100.009 ZM83.280,68.246 C82.645,66.199 80.245,63.234 77.140,59.705 C75.446,57.729 72.904,55.541 72.128,54.482 C71.069,53.070 71.352,52.506 72.128,51.235 C72.057,51.235 80.951,38.671 81.869,34.436 C82.363,32.883 81.869,31.754 79.681,31.754 L72.410,31.754 C70.575,31.754 69.728,32.742 69.234,33.801 C69.234,33.801 65.493,42.836 60.270,48.694 C58.576,50.388 57.799,50.953 56.882,50.953 C56.388,50.953 55.752,50.388 55.752,48.835 L55.752,34.365 C55.752,32.530 55.188,31.683 53.635,31.683 L42.200,31.683 C41.071,31.683 40.365,32.530 40.365,33.377 C40.365,35.142 42.977,35.565 43.259,40.506 L43.259,51.235 C43.259,53.564 42.836,53.988 41.918,53.988 C39.447,53.988 33.448,44.882 29.848,34.507 C29.142,32.460 28.436,31.683 26.601,31.683 L19.260,31.683 C17.143,31.683 16.790,32.671 16.790,33.730 C16.790,35.636 19.260,45.235 28.295,57.941 C34.295,66.622 42.836,71.281 50.529,71.281 C55.188,71.281 55.752,70.222 55.752,68.458 L55.752,61.893 C55.752,59.776 56.176,59.423 57.658,59.423 C58.717,59.423 60.623,59.988 64.928,64.152 C69.869,69.093 70.716,71.352 73.469,71.352 L80.739,71.352 C82.857,71.352 83.845,70.293 83.280,68.246 Z"/>
</svg>
